X:476
T:B476-  Under and Over
Q:1/4=120
L:1/4
M:6/4
K:G dorian
G2gf2_e|d3c2B|B2BA2G|A3^F3|\
G2g^f2g|a3d3|e2e^f3/2e/f|(g3g2)||d/e/|\
ffff2d|cccc2A|BBBA2G|A3^F3|\
G2g^f2g|a3e3|e2e^f3/2e/f|(g3g2)|]
